icons/svg/32x32/home/outline.svg

<svg xmlns="http://www.w3.org/2000/svg" width="32" height="32" viewBox="0 0 32 32">
  <path fill-rule="evenodd" d="M24.9998963,12 L24.9998963,26 C24.9998963,27.103 24.1028963,28 22.9998963,28 L20.9998963,28 L20.9998963,19 C20.9998963,16.238 18.7618963,14 15.9998963,14 C13.2378963,14 10.9998963,16.238 10.9998963,19 L10.9998963,28 L8.99989631,28 C7.89689631,28 6.99989631,27.103 6.99989631,26 L6.99989631,12 L6.91189631,12 L15.9998963,4.31 L25.0878963,12 L24.9998963,12 Z M29.6458963,13.236 L16.6458963,2.237 C16.2738963,1.921 15.7258963,1.921 15.3538963,2.237 L2.35389631,13.236 C1.93289631,13.594 1.87989631,14.225 2.23589631,14.646 C2.59389631,15.067 3.22489631,15.119 3.64589631,14.764 L4.99989631,13.617 L4.99989631,26 C4.99989631,28.206 6.79389631,30 8.99989631,30 L22.9998963,30 C25.2058963,30 26.9998963,28.206 26.9998963,26 L26.9998963,13.617 L28.3538963,14.764 C28.5418963,14.922 28.7708963,15 28.9988963,15 C29.2828963,15 29.5648963,14.88 29.7638963,14.646 C30.1198963,14.225 30.0668963,13.594 29.6458963,13.236 L29.6458963,13.236 Z"/>
</svg>

<svg width="32" height="32" fill="none" xmlns="http://www.w3.org/2000/svg">
  <path fill-rule="evenodd" clip-rule="evenodd" d="M25 26c0 1.103-.897 2-2 2h-2v-9a5 5 0 00-5-5 5 5 0 00-5 5v9H9c-1.103 0-2-.897-2-2V11.926l9-7.616 9 7.616V26zm4.646-12.764l-13-10.999a.998.998 0 00-1.292 0l-13 10.999A1.007 1.007 0 002 14a.992.992 0 00.236.646c.357.421.988.473 1.41.118L5 13.617V26c0 2.206 1.794 4 4 4h14c2.206 0 4-1.794 4-4V13.617l1.354 1.147a1 1 0 001.292-1.528z" fill="#000"/>
</svg>
